svg/u1f4a6.svg

<svg viewBox="0 0 128 128" xmlns="http://www.w3.org/2000/svg">
  <g>
    <path d="M59.2,94.33c-1.66,16.44-14.08,27.62-30.55,26.34C12.18,119.39,5.36,105.49,6.2,92.33 c0.89-14.08,7.68-20.35,12-29c6-12,3.92-21.06,5.16-25.9c0.54-2.11,3.09-2.93,4.74-1.51C37.84,44.27,61.68,69.78,59.2,94.33z" fill="#4FC3F7"/>
    <path d="M118.97,92.21c5.69,10.66,3.03,25.35-8.09,29.66c-16.67,6.46-27.67-5.54-29.67-25.54 c-0.76-7.64-6.11-19.46-7.34-22.9c-0.53-1.5,0.66-3.02,2.23-2.83C85.33,71.75,110.47,76.3,118.97,92.21z" fill="#4FC3F7"/>
    <path d="M107.28,11.49c13.56,9.43,17.84,27.88,8.43,41.46c-6.51,9.38-24.41,11.5-35.51,4.38 c-11.88-7.62-15.13-15.55-22-24C51.56,25.17,44,20.59,40.37,17.15c-1.58-1.5-1.06-4.13,0.98-4.88 C53.38,7.81,87.02-2.6,107.28,11.49z" fill="#4FC3F7"/>
    <path d="M53.42,94.82c-0.37,1.11-0.89,2.2-1.73,3c-0.85,0.81-2.07,1.29-3.2,1.02 c-1.66-0.39-2.58-2.13-3.16-3.73c-1.59-4.38-2.18-9.11-1.72-13.74c0.26-2.64,1.23-6.09,4.22-6.81c2-0.48,3.27,1.08,4.09,2.7 C54.44,82.23,55.18,89.57,53.42,94.82z" fill="#B3E5FC"/>
    <path d="M114.92,99.24c-0.02,0.88-0.16,1.81-0.76,2.45c-1.06,1.15-2.97,0.78-4.36,0.07 c-3.15-1.6-5.55-4.45-7.09-7.63c-1-2.09-2.52-5.92-0.28-7.7c1.56-1.24,3.97-1.28,5.57-0.21C111.99,88.9,115.05,94.47,114.92,99.24 z" fill="#B3E5FC"/>
    <path d="M106.97,24.04c-2.48,3.92-8.47,2.53-13.35-4.05c-2.46-3.3-6.35-4.8-8.52-5.77 c-4.04-1.81-0.38-4.26,1.47-4.44c5.35-0.51,8.35-0.11,13.2,2.31C103.59,14.01,109.81,19.56,106.97,24.04z" fill="#B3E5FC"/>
  </g>
</svg>

<svg viewBox="0 0 128 128" xmlns="http://www.w3.org/2000/svg">
  <defs/>
  <path d="M59.2,94.33 C57.54,110.77 45.12,121.95 28.65,120.67 C12.18,119.39 5.36,105.49 6.2,92.33 C7.09,78.25 13.88,71.98 18.2,63.33 C24.2,51.33 22.12,42.27 23.36,37.43 C23.9,35.32 26.45,34.5 28.1,35.92 C37.84,44.27 61.68,69.78 59.2,94.33 Z" fill="#4FC3F7"/>
  <path d="M118.97,92.21 C124.66,102.87 122,117.56 110.88,121.87 C94.21,128.33 83.21,116.33 81.21,96.33 C80.45,88.69 75.1,76.87 73.87,73.43 C73.34,71.93 74.53,70.41 76.1,70.6 C85.33,71.75 110.47,76.3 118.97,92.21 Z" fill="#4FC3F7"/>
  <path d="M107.28,11.49 C120.84,20.92 125.12,39.37 115.71,52.95 C109.2,62.33 91.3,64.45 80.2,57.33 C68.32,49.71 65.07,41.78 58.2,33.33 C51.56,25.17 44,20.59 40.37,17.15 C38.79,15.65 39.31,13.02 41.35,12.27 C53.38,7.81 87.02,-2.6 107.28,11.49 Z" fill="#4FC3F7"/>
  <path d="M53.42,94.82 C53.05,95.93 52.53,97.02 51.69,97.82 C50.84,98.63 49.62,99.11 48.49,98.84 C46.83,98.45 45.91,96.71 45.33,95.11 C43.74,90.73 43.15,86 43.61,81.37 C43.87,78.73 44.84,75.28 47.83,74.56 C49.83,74.08 51.1,75.64 51.92,77.26 C54.44,82.23 55.18,89.57 53.42,94.82 Z" fill="#B3E5FC"/>
  <path d="M114.92,99.24 C114.9,100.12 114.76,101.05 114.16,101.69 C113.1,102.84 111.19,102.47 109.8,101.76 C106.65,100.16 104.25,97.31 102.71,94.13 C101.71,92.04 100.19,88.21 102.43,86.43 C103.99,85.19 106.4,85.15 108,86.22 C111.99,88.9 115.05,94.47 114.92,99.24 Z" fill="#B3E5FC"/>
  <path d="M106.97,24.04 C104.49,27.96 98.5,26.57 93.62,19.99 C91.16,16.69 87.27,15.19 85.1,14.22 C81.06,12.41 84.72,9.96 86.57,9.78 C91.92,9.27 94.92,9.67 99.77,12.09 C103.59,14.01 109.81,19.56 106.97,24.04 Z" fill="#B3E5FC"/>
</svg>
